!!!ONB: MCCC : IJH0436_03 : Extracted Monophonic Melody
!!!COM: Haydn, Joseph
!!!OPR: String Quartet in D minor
!!!OMV: 3
!!!SCT: Hob.III:76 ; Op.76 No.2
!!!ODT: 1796///
**kern
*thru
*k[b-]
*d:
*clefF
*M3/4
8dd
8ee
=1
4ff
8ff
8gg
8ff
8ee
=2
4dd
8dd
8ee
8ff
8gg
=3
4aa
4aa
4ddd
=4
8ccc#
8eee
4aa
4gg#
=5
2aa
8ff
8dd
=6
4cc#
4ee
4aa
=7
4bb-
4bb-
8gg
8ee
=8
4cc#
4cc#
4r
=9
4a
4a
4dd
=10
4ee
8ee
8ff
4dd
=11
4r
4r
8dd
8ee
=12
4ff
4ff
4gg
=13
4aa
8aa
8bb-
4gg
=14
4ff
8ccc
8ddd
8bb-
8ccc
=15
4aa
4r
4ccc
=16
4fff
4ff
4gg
=17
4aa
4r
4bb-
=18
4cc#
4cc#
4dd
=19
4ee
4ee
4ff
=20
4cc#
4cc#
4dd
=21
4ee
4ee
4ff
=22
4r
4r
8dd
8ee
=23
4ff
8ff
8gg
8ff
8ee
=24
4dd
8dd
8ee
8ff
8gg
=25
4aa
4aa
4ddd
=26
8ccc#
8eee
4aa
4gg#
=27
2aa
4ddd
=28
8ccc#
8eee
4aa
4bb-
=29
4aa
4ff
4gg
=30
8gg
8ff
8ee
8dd
4cc#
=31
4dd
4dd
4ee
=32
4ff
4ff
4r
=33
4a
4a
4dd
=34
4ee
8ee
8ff
4dd
=35
2.r
=36
4aa
8ee
8ff
4dd
=37
4r
4r
8dd
8ee
=38
4r
4r
4dd
=39
*D:
4dd
4dd
4dd
=40
4dd
4dd
4dd
=41
4dd
4dd
4dd
=42
4dd
4dd
4dd
=43
4dd
4dd
4dd
=44
4dd
4dd
4dd
=45
8cc#
8dd
8ee
8dd
8ee
8dd
=46
8cc#
8dd
8ee
8ff#
8gg
8aa
=47
8bb
8aa
8ddd
8ccc#
8bb
8aa
=48
8gg
8aa
8bb
8ccc#
8ddd
8eee
=49
8fff#
8ggg
8aaa
8aaa
8aaa
8aaa
=50
8aaa
8aaa
8aaa
8aaa
8aaa
8aaa
=51
8ggg#
8aaa
8bbb
8aaa
8bbb
8ggg#
=52
4aaa
4r
4ddd
=53
4aaa
4r
4r
=54
2.r
=55
4r
4r
4aa
=56
4aa
4aa
4aa
=57
4aa
4aa
8aa
8gg
=58
8ff
8ee
8dd
8cc#
8dd
8ff
=59
8ee
8cc#
8a
8bb-
8aa
8gg
=60
8ff
8ee
8dd
8cc#
8dd
8ff
=61
8ee
8cc#
8a
8bb-
8aa
8gg
=62
8ff
8ee
8dd
8cc#
8dd
8ff
=63
4aa
4aa
4aa
=64
4aa
4aa
4r
=65
4r
4r
4dd
=66
4dd
4dd
4dd
=67
4dd
4dd
4dd
=68
4dd
4dd
4dd
=69
4dd
4dd
4dd
=70
4dd
4dd
4dd
=71
4dd
4dd
4dd
=72
4dd
4dd
4dd
=73
4dd
4dd
4dd
=74
8cc#
8dd
8ee
8dd
8ee
8dd
=75
8cc#
8dd
8ee
8ff#
8gg
8aa
=76
8bb
8aa
8ddd
8ccc#
8bb
8aa
=77
8gg
8aa
8bb
8ccc#
8ddd
8eee
=78
8fff#
8ggg
8aaa
8aaa
8aaa
8aaa
=79
8ggg
8aaa
8bbb
8bbb
8bbb
8bbb
=80
8aaa
8bbb
8cccc#
8cccc#
8cccc#
8cccc#
=81
4dddd
2r
==
*-
